!!!OTL: 394. Vergissmeinnicht!
!!!ODT: 1804
!!!ARE: Europa, Mitteleuropa, Deutschland
!!!SCT: B0394
!!!TXL: @@DE
!!!YEM: Copyright 1995, estate of Helmut Schaffrath.
**kern	**text
*ICvox	*
*Ivox	*
*clefG2	*
*M4/4	*
*met(c)	*
*k[]	*
*C:	*
!LO:TX:a:t=Langſam und innig.	!
{8e	Ver-
8e	-giß
8f	mein
=1	=1
4.g	nicht,
8g	o
8g	Theu-
8ee	-re
8dd	die
8cc	ich
=2	=2
8ccL	mei-
8bJ	.
4b	-ne,
8r}	.
{8b	ʒu
8b	wel-
8cc	-cher
=3	=3
4.dd	die-
8b	-ſes
4.g	Lied
8f	hier
=4	=4
(4fqq	.
2e)	ſpricht,
8r}	.
{8g	um
8g	de-
8g	-ren
=5	=5
4.cc	Rück-
8cc	-kehr
8bL	ich
8ccJ	.
8bL	oft
8ccJ	.
=6	=6
(4cc	be-
[4a\	.
16a{L]	.
16cc	.
16b	.
16ccJ	.
16ddL	.
16ccJ)	.
(16b\L	-tend
16aJ)	.
=7	=7
8aL	wei-
8gJ	.
4g	-ne
4r	.
8r}	.
{8g	ver-
=8	=8
2.g	-giß
8aL	mein
8bJ	.
=9	=9
2cc	nicht,
4r	.
8r	.
8g	ver-
=10	=10
(4aqq	.
2.g)	-giß
8fL	mein
8dJ	.
=11	=11
2c	nicht!
8r}	.
==	==
!!!AGN: Liebes - Lied, Liebes - Lust
!!!GTL: Liebeslieder - Liebeslust
!!!ONB: ESAC (Essen Associative Code) Database: BOEHME
!!!AMT: simple quadruple
!!!AIN: vox
!!!EED: Helmut Schaffrath
!!!EEV: 1.0
!!@@COMMENT:"Verfasser des Textes ungekannt. Mit Mel. steht das Lied bei W. Ehlers
!!"Gesänge mit Begleitung der Gitarre". Tübingen 1804. S. 52[...]
!!Die Melodie ist wahrscheinlich von dem sehr musikalischen Opernsänger Ehlers selbft komponirt.[...]"
!!@@END:
!!!URL-scan: https://archive.org/details/BoehmeVtLieder1895/page/n325/mode/2up
!!!ENC: Anna Maria Matuszewska
!!!EEV: 2024/08/07
*-	*-
